X:2241
T:Bock Kilkenny
T:Inneen Kilkenny 
C:Mrs Lawson, Ballachurry,Jurby 
C:Traditional
O:Isle of Man
Z:KV241 
M:3/4 
L:1/8 
Q:200 
K:G 
D GD|G2 Bd ef|g2 fe dB|A2 GA BG|E3D GD|G2 Bd ef|g2 fe dB|A2 BD GG|G3|| 

